Breeze Round Light/devices/16/computer.svg

<svg xmlns="http://www.w3.org/2000/svg" viewBox="0 0 16 16">
  <defs id="defs3051">
    <style type="text/css" id="current-color-scheme">
      .ColorScheme-Text {
        color:#232629;
      }
      </style>
  </defs>
    <path 
        style="fill:currentColor;fill-opacity:1;stroke:none" 
        d="M 4 3 C 2.892 3 2 3.892 2 5 L 2 9 C 2 10.108 2.892 11 4 11 L 7 11 L 7 12 L 5 12 L 5 13 L 11 13 L 11 12 L 9 12 L 9 11 L 12 11 C 13.108 11 14 10.108 14 9 L 14 5 C 14 3.892 13.108 3 12 3 L 4 3 z M 4 4 L 12 4 C 12.554 4 13 4.446 13 5 L 13 9 C 13 9.554 12.554 10 12 10 L 4 10 C 3.446 10 3 9.554 3 9 L 3 5 C 3 4.446 3.446 4 4 4 z "
        class="ColorScheme-Text"/>
</svg>

<svg xmlns="http://www.w3.org/2000/svg" viewBox="0 0 16 16">
  <defs id="defs3051">
    <style type="text/css" id="current-color-scheme">.ColorScheme-Text {color:#eff0f1;}</style>
  </defs>
    <path 
        style="fill:currentColor;fill-opacity:1;stroke:none" 
        d="m 2,5 c 0,2 0,2 0,4 0,2 2,2 2,2 h 3 v 1 H 5 v 1 h 6 V 12 H 9 v -1 h 3 c 0,0 2,0 2,-2 C 14,7 14,7 14,5 14,3 12,3 12,3 H 4 C 4,3 2,3 2,5 Z M 3,5 C 3,4 4,4 4,4 h 8 c 0,0 1,0 1,1 0,1 0,3 0,4 0,1 -1,1 -1,1 H 4 C 4,10 3,10 3,9 3,8 3,6 3,5 Z"
        class="ColorScheme-Text"/>
</svg>
